docs/landing/src/assets/techs/node.svg

<svg height="292" viewBox="0 0 256 292" width="256" xmlns="http://www.w3.org/2000/svg" xmlns:xlink="http://www.w3.org/1999/xlink"><linearGradient id="a" x1="68.188441%" x2="27.822694%" y1="17.486831%" y2="89.755142%"><stop offset="0" stop-color="#41873f"/><stop offset=".3288" stop-color="#418b3d"/><stop offset=".6352" stop-color="#419637"/><stop offset=".9319" stop-color="#3fa92d"/><stop offset="1" stop-color="#3fae2a"/></linearGradient><linearGradient id="b" x1="43.276547%" x2="159.245277%" y1="55.168777%" y2="-18.306138%"><stop offset=".1376" stop-color="#41873f"/><stop offset=".4032" stop-color="#54a044"/><stop offset=".7136" stop-color="#66b848"/><stop offset=".9081" stop-color="#6cc04a"/></linearGradient><linearGradient id="c" x1="-4.388804%" x2="101.499239%" y1="49.997207%" y2="49.997207%"><stop offset=".09191646" stop-color="#6cc04a"/><stop offset=".2864" stop-color="#66b848"/><stop offset=".5968" stop-color="#54a044"/><stop offset=".8624" stop-color="#41873f"/></linearGradient><mask id="d" fill="#fff"><path d="m134.922587 1.83244962c-4.343584-2.44326616-9.50159-2.44326616-13.845175 0l-114.29056154 65.96818658c-4.34358429 2.4432662-6.78685046 7.0583244-6.78685046 11.9448568v132.207847c0 4.886533 2.71474019 9.501591 6.78685046 11.944857l114.29056154 65.968188c4.343585 2.443264 9.501591 2.443264 13.845175 0l114.290561-65.968188c4.343585-2.443266 6.786852-7.058324 6.786852-11.944857v-132.207847c0-4.8865324-2.71474-9.5015906-6.786852-11.9448568z" fill="#fff"/></mask><mask id="e" fill="#fff"><path d="m134.922587 1.83244962c-4.343584-2.44326616-9.50159-2.44326616-13.845175 0l-114.29056154 65.96818658c-4.34358429 2.4432662-6.78685046 7.0583244-6.78685046 11.9448568v132.207847c0 4.886533 2.71474019 9.501591 6.78685046 11.944857l114.29056154 65.968188c4.343585 2.443264 9.501591 2.443264 13.845175 0l114.290561-65.968188c4.343585-2.443266 6.786852-7.058324 6.786852-11.944857v-132.207847c0-4.8865324-2.71474-9.5015906-6.786852-11.9448568z" fill="#fff"/></mask><path d="m134.922587 1.83244962c-4.343584-2.44326616-9.50159-2.44326616-13.845175 0l-114.29056154 65.96818658c-4.34358429 2.4432662-6.78685046 7.0583244-6.78685046 11.9448568v132.207847c0 4.886533 2.71474019 9.501591 6.78685046 11.944857l114.29056154 65.968188c4.343585 2.443264 9.501591 2.443264 13.845175 0l114.290561-65.968188c4.343585-2.443266 6.786852-7.058324 6.786852-11.944857v-132.207847c0-4.8865324-2.71474-9.5015906-6.786852-11.9448568z" fill="url(#a)"/><path d="m249.484623 67.8006362-114.83351-65.96818658c-1.085896-.54294803-2.443266-1.08589606-3.529162-1.35737008l-128.67868483 220.43690346c1.08589607 1.35737 2.44326618 2.443266 3.80063626 3.257688l114.83350957 65.968186c3.257689 1.90032 7.058325 2.443267 10.587487 1.35737l120.805939-220.9798506c-.814422-1.0858961-1.90032-1.9003183-2.986215-2.7147402z" fill="url(#b)" mask="url(#d)"/><path d="m249.756098 223.898195c3.257687-1.900317 5.700955-5.158004 6.786849-8.687166l-125.963944-215.00742421c-3.257688-.54294817-6.78685-.2714742-9.773065 1.62884406l-114.01908754 65.69671245 122.97773054 224.2375407c1.628844-.271475 3.529162-.814423 5.158006-1.628845z" fill="url(#c)" mask="url(#e)"/></svg>

<?xml version="1.0" encoding="UTF-8"?>
<svg width="256px" height="292px" viewBox="0 0 256 292" version="1.1" xmlns="http://www.w3.org/2000/svg" xmlns:xlink="http://www.w3.org/1999/xlink">
    <title>Node.js</title>
    <defs>
        <linearGradient x1="68.1884411%" y1="17.4868311%" x2="27.8226935%" y2="89.7551419%" id="linearGradient-1">
            <stop stop-color="#41873F" offset="0%"></stop>
            <stop stop-color="#418B3D" offset="32.88%"></stop>
            <stop stop-color="#419637" offset="63.52%"></stop>
            <stop stop-color="#3FA92D" offset="93.19%"></stop>
            <stop stop-color="#3FAE2A" offset="100%"></stop>
        </linearGradient>
        <path d="M134.922587,1.83244962 C130.579003,-0.610816541 125.420997,-0.610816541 121.077412,1.83244962 L6.78685046,67.8006362 C2.44326617,70.2439024 0,74.8589606 0,79.745493 L0,211.95334 C0,216.839873 2.71474019,221.454931 6.78685046,223.898197 L121.077412,289.866385 C125.420997,292.309649 130.579003,292.309649 134.922587,289.866385 L249.213148,223.898197 C253.556733,221.454931 256,216.839873 256,211.95334 L256,79.745493 C256,74.8589606 253.28526,70.2439024 249.213148,67.8006362 L134.922587,1.83244962 L134.922587,1.83244962 Z" id="path-2"></path>
        <linearGradient x1="43.2765472%" y1="55.168777%" x2="159.245277%" y2="-18.3061379%" id="linearGradient-4">
            <stop stop-color="#41873F" offset="13.76%"></stop>
            <stop stop-color="#54A044" offset="40.32%"></stop>
            <stop stop-color="#66B848" offset="71.36%"></stop>
            <stop stop-color="#6CC04A" offset="90.81%"></stop>
        </linearGradient>
        <path d="M134.922587,1.83244962 C130.579003,-0.610816541 125.420997,-0.610816541 121.077412,1.83244962 L6.78685046,67.8006362 C2.44326617,70.2439024 0,74.8589606 0,79.745493 L0,211.95334 C0,216.839873 2.71474019,221.454931 6.78685046,223.898197 L121.077412,289.866385 C125.420997,292.309649 130.579003,292.309649 134.922587,289.866385 L249.213148,223.898197 C253.556733,221.454931 256,216.839873 256,211.95334 L256,79.745493 C256,74.8589606 253.28526,70.2439024 249.213148,67.8006362 L134.922587,1.83244962 L134.922587,1.83244962 Z" id="path-5"></path>
        <linearGradient x1="-4.38880435%" y1="49.9972065%" x2="101.499239%" y2="49.9972065%" id="linearGradient-7">
            <stop stop-color="#6CC04A" offset="9.191646%"></stop>
            <stop stop-color="#66B848" offset="28.64%"></stop>
            <stop stop-color="#54A044" offset="59.68%"></stop>
            <stop stop-color="#41873F" offset="86.24%"></stop>
        </linearGradient>
    </defs>
    <g>
      <path d="M134.922587,1.83244962 C130.579003,-0.610816541 125.420997,-0.610816541 121.077412,1.83244962 L6.78685046,67.8006362 C2.44326617,70.2439024 1.66898426e-14,74.8589606 1.66898426e-14,79.745493 L1.66898426e-14,211.95334 C1.66898426e-14,216.839873 2.71474019,221.454931 6.78685046,223.898197 L121.077412,289.866385 C125.420997,292.309649 130.579003,292.309649 134.922587,289.866385 L249.213148,223.898197 C253.556733,221.454931 256,216.839873 256,211.95334 L256,79.745493 C256,74.8589606 253.28526,70.2439024 249.213148,67.8006362 L134.922587,1.83244962 L134.922587,1.83244962 Z" fill="url(#linearGradient-1)"></path>
      <g>
          <mask id="mask-3" fill="white">
              <use xlink:href="#path-2"></use>
          </mask>
          <g></g>
          <path d="M249.484623,67.8006362 L134.651113,1.83244962 C133.565217,1.28950159 132.207847,0.746553555 131.121951,0.475079538 L2.44326617,220.911983 C3.52916224,222.269353 4.88653235,223.355249 6.24390243,224.169671 L121.077412,290.137857 C124.335101,292.038177 128.135737,292.581124 131.664899,291.495227 L252.470838,70.5153764 C251.656416,69.4294803 250.570518,68.6150581 249.484623,67.8006362 L249.484623,67.8006362 Z" fill="url(#linearGradient-4)" mask="url(#mask-3)"></path>
      </g>
      <g>
          <mask id="mask-6" fill="white">
              <use xlink:href="#path-5"></use>
          </mask>
          <g></g>
          <path d="M249.756098,223.898195 C253.013785,221.997878 255.457053,218.740191 256.542947,215.211029 L130.579003,0.203604793 C127.321315,-0.339343381 123.792153,-0.0678694115 120.805938,1.83244885 L6.78685046,67.5291613 L129.764581,291.766702 C131.393425,291.495227 133.293743,290.952279 134.922587,290.137857 L249.756098,223.898195 L249.756098,223.898195 Z" fill="url(#linearGradient-7)" mask="url(#mask-6)"></path>
      </g>
    </g>
</svg>
